images/facebook.svg

<svg height="36" viewBox="0 0 36 36" width="36" xmlns="http://www.w3.org/2000/svg"><path d="m18 0a18 18 0 1 1 -18 18 18 18 0 0 1 18-18z" fill="none"/><path d="m12.13 11.825.584-3.8h-3.65v-2.474a1.9 1.9 0 0 1 2.145-2.051h1.66v-3.243a20.238 20.238 0 0 0 -2.947-.257c-3.006 0-4.971 1.822-4.971 5.121v2.9h-3.342v3.8h3.342v9.2h4.113v-9.2z" transform="translate(10.761 7.489)"/></svg>

<svg xmlns="http://www.w3.org/2000/svg" width="36" height="36" viewBox="0 0 36 36">
  <g id="facebook" transform="translate(-1161 -2766)">
    <path id="circle" d="M18,0A18,18,0,1,1,0,18,18,18,0,0,1,18,0Z" transform="translate(1161 2766)" fill="none"/>
    <path id="icon" d="M12.13,11.825l.584-3.8H9.064V5.551A1.9,1.9,0,0,1,11.209,3.5h1.66V.257A20.238,20.238,0,0,0,9.922,0C6.916,0,4.951,1.822,4.951,5.121v2.9H1.609v3.8H4.951v9.2H9.064v-9.2Z" transform="translate(1171.761 2773.489)"/>
  </g>
</svg>
